assets/images/vector/icons/basket_shopping_icon.svg

<svg fill="none" height="55" viewBox="0 0 59 55" width="59" xmlns="http://www.w3.org/2000/svg"><g stroke="#111" stroke-linecap="round" stroke-linejoin="round" stroke-width="10"><path d="m15 20.001 8.3333-15.00002"/><path d="m43.3333 20.001-8.3333-15.00002"/><path d="m49.166 20.001-1.99 23.8866c-.2867 3.4567-3.1767 6.1134-6.6433 6.1134h-22.7334c-3.4666 0-6.3566-2.6567-6.6433-6.1134l-1.98998-23.8866"/><path d="m5 20.001h48.3333"/></g></svg>

<svg width="59" height="55" viewBox="0 0 59 55" fill="none" xmlns="http://www.w3.org/2000/svg">
<path d="M15 20.001L23.3333 5.00098" stroke="#111111" stroke-width="10" stroke-linecap="round" stroke-linejoin="round"/>
<path d="M43.3333 20.001L35 5.00098" stroke="#111111" stroke-width="10" stroke-linecap="round" stroke-linejoin="round"/>
<path d="M49.166 20.001L47.176 43.8876C46.8893 47.3443 43.9993 50.001 40.5327 50.001H17.7993C14.3327 50.001 11.4427 47.3443 11.156 43.8876L9.16602 20.001" stroke="#111111" stroke-width="10" stroke-linecap="round" stroke-linejoin="round"/>
<path d="M5 20.001H53.3333" stroke="#111111" stroke-width="10" stroke-linecap="round" stroke-linejoin="round"/>
</svg>
